X: 0
T: Jenny Dang the Weaver
C: Reverend Alexander Garden
O: Scotland
R: reel
M: 4/4
L: 1/8
K: Dmaj
|:"D"dA (3AAA AFAB|dA (3AAA f2ef|"G"dBBd BABd|"A"ABde faef:|
|:"D"defd efge|defd "A"e2dB|"D"defd efge|1"A"aA (3AAA "D"f2ef:|2 "A"abag fgef| "D"d4 d4| 
